X:1
T:James Gibb editions
T:Master, is it good to be - Barnby
%%score [ ( 1 2 ) ( 3 4 5 ) ]
L:1/8
Q:1/4=75
M:4/4
K:A
V:1 treble nm="Midi_74"
V:2 treble 
V:3 bass nm="Midi_74"
V:4 bass 
V:5 bass 
V:1
"^Master, is it good to be""^Joseph Barnby\n(1838-96)""^D.L.M." z8 || z8 || z8 | !fermata!z8 || %4
[M:4/4] B2 BB d2 d2 | A3 A c3 || c | c2 ^d2"^1" e2 A2 | GA F2 E2 || G2 | B3 B A2 G2 | F2 G2 A2 || %12
[M:4/4] A2 | d3 d c2 B2 | A2 B2 c4 || e2 cc B2 A2 |"^1" d2 B2 G2 || E2 x6 | c2 A2 FG A2 | %19
 A2 B2 A4 || A4 A4 |] %21
V:2
 x8 || x8 || x8 | x8 ||[M:4/4] G2 GG F2 F2 | F3 F E3 || E | E2 F2 E2 E2 | E2 ^D2 E2 || E2 | %10
 F3 F F2 ^E2 | F2 ^E2 F2 ||[M:4/4] F2 | F3 F E2 E2 | E2 E2 E4 || E2 EE D2 C2 | D2 F2 E2 || E2 x6 | %18
 E2 E2 E2 D2 | C2 D2 C4 || D4 C4 |] %21
V:3
 E,2 F,2 A,2 A,2 || B,3 A, (A,2 A,2) || B,2 A,B, C2 C2 | E2 C2 B,4 ||[M:4/4]"^-" E2 E"^-"E D2 D2 | %5
 D3 D C3 || C | C2 B,2 B,2 C2 | B,C A,2 G,2 || B,2 | !courtesy!=D3 D C2 C2 | C2"^-" C2 C2 || %12
[M:4/4] C2 | B,2 A,2 G,2"^-" D2 | C2 B,2 A,4 || G,2 G,G, F,2 F,2 | F,2 D2 B,2 || B,2 x6 | %18
 A,2 A,2 A,2 A,2 | A,2 G,2 A,4 || F,4 E,4 |] %21
V:4
 E,2 F,2 A,2 A,2 || B,3 A, A,2 A,2 || G,2 F,G, A,2 A,2 | C2 A,2 !fermata!E,4 || %4
[M:4/4] E,2 E,E, B,,2 B,,2 | D,3 D, A,,3 || A, | A,2 A,2 G,2 A,2 | B,2 B,,2 E,2 || E,2 | %10
 B,,3 B,, C,2 B,2 | A,2 G,2 F,2 ||[M:4/4] F,2 | D,3 D, E,2 E,2 | F,2 G,2 A,4 || C,2 E,E, F,2 F,2 | %16
 B,,2 D,2 E,2 || G,2 x6 | A,2 C,2 D,2 F,2 | E,2 E,2 A,,4 || D,4 A,,4 |] %21
V:5
 [A,,C,]2 D,2 [C,E,]2 F,2 || [D,F,]2 [E,G,]2 [A,,C,]4 || E,2 E,2 x2 x2 | [A,,E,]2 C,2 G,4 || %4
[M:4/4] x8 | x7 || x | x8 | x6 || x2 | x8 | x6 ||[M:4/4] x2 | x8 | x8 || x6 x2 | x2 x4 || x8 | x8 | %19
 x8 || x8 |] %21

